X:1
R: jig
M: 6/8
L: 1/8
T:Rory Gallagher's
K:Amix
cd |"A"eaa faa | eae fec | eaf ecA | "G/A"cBB Bcd |
"A"eaa "D"faa | "A"eae fec | "Esus4"eaf ecB |1 cAA A :|2 cAA A2B ||
|: "A"cAA cde | "Bm7"dAA ded | "A"eAA eAe | "G/A"dAA ded |
"A"cAA cde | "D"dAA ded | "E"eee fed | cdB A3 :|
